X:51 
T:Lord Moira's Welcome to Scotland 
B:OFPC4.146
C:file ID: ofpc.4/051lmws
Y:"Scotch"
Q:120
M:C|
L:1/8
R:hornpipe 
K:G
P:simplified version
D|G2G2 Bdd2|cABG AGFD|G2G2 Bdd2|egf2 g2g :|
b|"5"g2bg agfd|e2ge dcBG|g2bg agfd|egf2 g2gb|
"9"a2bg agfe|eBgB cGAB|G2G2 cee2|dgf2 gag :|
A|"13"BGdG eBdg|BGdB ABce|BGdG eBdg|egf2 gagb|
"17"gbgb fad2|efge dcBG|gbgb fad2|egf2 g2gb|
"21"e[ac']db caBg|dcBG AGFD|GBAc Bdce|1 dgbf ged :|\
[2 dgbf Hg4|]

